X:22
T:Willafjord
C:Shetland, Scotland
M:4/4
L:1/8
K:D major
B2 | "D"A2 FA- ADFA | "G"B2 GB- BDGB | "D"A2 FA- ADFA | "Em"EFGA GFED | \
"D"A2 FA- ADFA |
 "G"B2 GB- BDGB | "A7"ABcd efge | "D"f2 d2 d2 :|\
|: e2 | "D"f2 df- ffdf | "Em"geaf "G"gfed | "D"f2 df- fAdf |
 "A7"e2 ce- eAce | "D"f2 df- ffdf | "Em"geaf "G"gfed | "A7"ABcd efge | "D"f2 d2 d2 :|
